**kern	**silbe
*ICvox	*
*E:	*
*M4/4	*
*clefG2	*
r;	.
=1	=1
1r	.
=2	=2
1r	.
=3	=3
1r	.
=4	=4
1r	.
=5	=5
4r	.
16B	Lit-
16B	-tle
8[c#	sis-
8c#]	_
8B	-ter
8G	don't
8E	you
=6	=6
1r	.
=7	=7
4r	.
16B	Lit-
16B	-tle
8[c#	sis-
8c#]	_
8B	-ter
8G	don't
8E	you
=8	=8
1r	.
=9	=9
4r	.
16B	Lit-
16B	-tle
8[c#	sis-
8c#]	_
8B	-ter
8.G	don't
16E	you
=10	=10
8G	kiss
8E	me
8E	once
8C#	or
4E	twice
8r	.
8E	Then
=11	=11
8G	say
8E	it's
8E	ve-
8C#	-ry
8E	nice
8E	and
8F#	then
8E	you
=12	=12
8B	run
8[G#	_
4G#]	_
2r	.
=13	=13
1r	.
=14	=14
4r	.
16F#	Lit-
16F#	-tle
8[F#	sis-
8F#]	_
8F#	-ter
8F#	don't
8F#	you
=15	=15
4G	do
8G	what
8G	your
4F#	big
8F#	sis-
8E	-ter
=16	=16
4E	done-
4r	.
2r	.
=17	=17
2r	.
8r	.
8[d	-Well,
8d]	_
8d	I
=18	=18
4d	da-
4c#	-ted
4B	your
8A	big
8[B	sis-
=19	=19
8B]	_
8G	-ter
4r	.
8r	.
8[d	And
8d]	_
8d	I
=20	=20
4d	took
4c#	her
4B	to
8A	a
8[G	show
=21	=21
4G]	_
4r	.
4r	.
8r	.
8B	I
=22	=22
4d	went
8c#	for
8B	some
8d	can-
8d	-dy
8r	.
8B	A-
=23	=23
8d	-long
4d	came
8B	Jim
8d	Dan-
8d	-dy
8c#	And
8B	they
=24	=24
4e	snuck
4B	right
4A	out
8G	the
8[E	door
=25	=25
2E]	_
2r	.
=26	=26
4r	.
16B	Lit-
16B	-tle
8[c#	sis-
8c#]	_
8B	-ter
8G	don't
8E	you
=27	=27
1r	.
=28	=28
4r	.
16B	Lit-
16B	-tle
8[c#	sis-
8c#]	_
8B	-ter
8G	don't
8E	you
=29	=29
1r	.
=30	=30
4r	.
16B	Lit-
16B	-tle
8[c#	sis-
8c#]	_
8B	-ter
8.G	don't
16E	you
=31	=31
8G	kiss
8E	me
8E	once
8C#	or
4E	twice
8r	.
8E	Then
=32	=32
8G	say
8E	it's
8E	ve-
8C#	-ry
8E	nice
8E	and
8F#	then
8E	you
=33	=33
8B	run
8[G#	_
4G#]	_
2r	.
=34	=34
1r	.
=35	=35
4r	.
16F#	Lit-
16F#	-tle
8[F#	sis-
8F#]	_
8F#	-ter
8F#	don't
8F#	you
=36	=36
4G	do
8G	what
8G	your
4F#	big
8F#	sis-
8E	-ter
=37	=37
4E	done-
4r	.
2r	.
=38	=38
2r	.
8r	.
8[d	-Ev'-
8d]	_
8d	-ry
=39	=39
4d	time
4c#	I
4B	see
8A	your
8[B	sis-
=40	=40
8B]	_
8G	-ter
4r	.
8r	.
8[d	Well
8d]	_
8d	she's
=41	=41
4d	got
4c#	some-
4B	-bo-
8A	-dy
8[G	new
=42	=42
4G]	_
4r	.
4r	.
8r	.
8B	She's
=43	=43
8d	mean
4d	and
8B	she's
8d	e-
8d	-vil
8c#	like
8B	that
=44	=44
16d	lit-
16d	-tle
8[c#	old
8c#]	_
8B	Boll
8d	Wee-
8d	-vil
8c#	guess
8B	I'll
=45	=45
4e	try
4B	my
4A	luck
8G	with
8[E	you
=46	=46
2.E]	_
4r	.
=47	=47
4r	.
16B	Lit-
16B	-tle
8[c#	sis-
8c#]	_
8B	-ter
8G	don't
8E	you
=48	=48
1r	.
=49	=49
4r	.
16B	Lit-
16B	-tle
8[c#	sis-
8c#]	_
8B	-ter
8G	don't
8E	you
=50	=50
1r	.
=51	=51
4r	.
16B	Lit-
16B	-tle
8[c#	sis-
8c#]	_
8B	-ter
8.G	don't
16E	you
=52	=52
8G	kiss
8E	me
8E	once
8C#	or
4E	twice
8r	.
8E	Then
=53	=53
8G	say
8E	it's
8E	ve-
8C#	-ry
8E	nice
8E	and
8F#	then
8E	you
=54	=54
8B	run
8[G#	_
4G#]	_
2r	.
=55	=55
1r	.
=56	=56
4r	.
16F#	Lit-
16F#	-tle
8[F#	sis-
8F#]	_
8F#	-ter
8F#	don't
8F#	you
=57	=57
4G	do
8G	what
8G	your
4F#	big
8F#	sis-
8E	-ter
=58	=58
4E	done-
4r	.
2r	.
=59	=59
2r	.
8r	.
8[d	-Well,
8d]	_
8d	I
=60	=60
4d	used
4c#	to
4B	pull
8A	your
8[B	pig-
=61	=61
8B]	_
8G	-tails
4r	.
4r	.
8r	.
8B	And
=62	=62
4d	pinch
4c#	your
4B	turned-
8A	-up
8[G	nose
=63	=63
2G]	_
4r	.
8r	.
8B	But
=64	=64
4d	you
8c#	been
8B	a
8d	gro-
8d	-win'
8r	.
8B	And
=65	=65
16d	ba-
16d	-by,
8c#	it's
8r	.
8B	been
8d	sho-
8d	-win'
8c#	From
8B	your
=66	=66
4e	head
4B	down
4A	to
8G	your
8[E	toes
=67	=67
2.E]	_
4r	.
=68	=68
4r	.
16B	Lit-
16B	-tle
8[c#	sis-
8c#]	_
8B	-ter
8G	don't
8E	you
=69	=69
1r	.
=70	=70
4r	.
16B	Lit-
16B	-tle
8[c#	sis-
8c#]	_
8B	-ter
8G	don't
8E	you
=71	=71
1r	.
=72	=72
4r	.
16B	Lit-
16B	-tle
8[c#	sis-
8c#]	_
8B	-ter
8.G	don't
16E	you
=73	=73
8G	kiss
8E	me
8E	once
8C#	or
4E	twice
8r	.
8E	Then
=74	=74
8G	say
8E	it's
8E	ve-
8C#	-ry
8E	nice
8E	and
8F#	then
8E	you
=75	=75
8B	run
8[G#	_
4G#]	_
2r	.
=76	=76
1r	.
=77	=77
4r	.
16F#	Lit-
16F#	-tle
8[F#	sis-
8F#]	_
8F#	-ter
8F#	don't
8F#	you
=78	=78
4G	do
8G	what
8G	your
4F#	big
8F#	sis-
8E	-ter
=79	=79
4E	done-
4r	.
2r	.
=80	=80
1r	.
=81	=81
4r	.
16F#	-Lit-
16F#	-tle
8[F#	sis-
8F#]	_
8F#	-ter
8F#	don't
8F#	you
=82	=82
4G	do
8G	what
8G	your
4F#	big
8F#	sis-
8E	-ter
=83	=83
4E	done-
4r	.
2r	.
=84	=84
1r	.
=85	=85
4r	.
16F#	-Lit-
16F#	-tle
8[F#	sis-
8F#]	_
8F#	-ter
8F#	don't
8F#	you
=86	=86
4G	do
8G	what
8G	your
4F#	big
8F#	sis-
8E	-ter
=87	=87
4E	done-
4r	.
2r	.
=88	=88
1r	.
r;	.
r;	.
*-	*-
!!!ENC: Nathaniel Condit-Schultz